src/assets/icons/vimeo.svg

<svg width="14" height="14" viewBox="0 0 14 14" fill="none" xmlns="http://www.w3.org/2000/svg">
<g id="vimeo">
<g clip-path="url(#clip0_156_4469)">
<path id="Vector" d="M12.6 0H1.4C0.628252 0 0 0.628255 0 1.40001V12.6C0 13.3717 0.628252 14 1.4 14H12.6C13.3717 14 14 13.3717 14 12.6V1.40001C14 0.628255 13.3726 0 12.6 0ZM11.7819 4.64975C11.7381 5.63412 11.0504 6.98425 9.7195 8.69312C8.34488 10.4807 7.1785 11.3741 6.22912 11.3741C5.6385 11.3741 5.1415 10.8308 4.732 9.73964C3.93488 6.82414 3.5945 5.11438 2.93825 5.11438C2.863 5.11438 2.59788 5.27363 2.14463 5.5895L1.6695 4.97702C2.835 3.95239 3.948 2.81489 4.6445 2.75189C5.432 2.67664 5.91675 3.21475 6.09788 4.36712C6.7445 8.46737 7.03237 9.08599 8.21012 7.22924C8.63187 6.56074 8.86025 6.05149 8.89175 5.70149C9.00113 4.66374 8.08238 4.7355 7.46025 5.0015C7.95725 3.37313 8.9075 2.58301 10.3101 2.62676C11.3505 2.65651 11.8414 3.33112 11.7819 4.64975Z" fill="black"/>
</g>
</g>
<defs>
<clipPath id="clip0_156_4469">
<rect width="14" height="14" fill="white"/>
</clipPath>
</defs>
</svg>

<svg xmlns="http://www.w3.org/2000/svg" fill="none" viewBox="0 0 14 14"><g clip-path="url(#a)"><path fill="#000" d="M12.6 0H1.4C.628 0 0 .628 0 1.4v11.2c0 .772.628 1.4 1.4 1.4h11.2c.772 0 1.4-.628 1.4-1.4V1.4c0-.772-.627-1.4-1.4-1.4m-.818 4.65q-.066 1.478-2.062 4.043c-1.375 1.788-2.542 2.681-3.49 2.681q-.886.001-1.498-1.634c-.797-2.916-1.138-4.626-1.794-4.626q-.113.001-.793.476l-.476-.613c1.166-1.025 2.279-2.162 2.975-2.225q1.182-.113 1.454 1.615c.647 4.1.934 4.719 2.112 2.862q.634-1.003.682-1.528c.11-1.037-.81-.965-1.432-.7q.746-2.441 2.85-2.374 1.56.045 1.472 2.023"/></g><defs><clipPath id="a"><path fill="#fff" d="M0 0h14v14H0z"/></clipPath></defs></svg>
